!!!COM: Garzi, Pietro Francesco
!!!CDT:
!!!PTL: Madrigali e canzonette a due, tre, quattro e cinque voci
!!!PPP: Venice
!!!PPR: Bartholomeo Magni
!!!PDT: 1629
!!!PUB-format:
!!!RISM: G 448
!!!rime: 323
!!!OTL: Lontano dal mio cuore
!!!AGN: Madrigal
!!!SCT: Trm0323a
!!!SCA: Trm0323a
!!!original-voices: 3
!!!extant-voices: 3
!!!complete: Y
!!!final: G
**kern	**text	**kern	**text	**kern	**text
*part3	*part3	*part2	*part2	*part1	*part1
*staff3	*staff3	*staff2	*staff2	*staff1	*staff1
*I"Basso	*	*I"Canto Secondo	*	*I"Canto Primo	*
*I'B	*	*I'C Secondo	*	*I'C1	*
*oclefF4	*	*oclefC1	*	*oclefC1	*
*clefF4	*	*clefG2	*	*clefG2	*
*k[b-]	*	*k[b-]	*	*k[b-]	*
*F:	*	*F:	*	*F:	*
*omet(C)	*	*omet(C)	*	*omet(C)	*
*M2/2	*	*M2/2	*	*M2/2	*
=1	=1	=1	=1	=1	=1
4r	.	4r	.	4r	.
4GG	Lon-	4b-y	Lon-	4dd	Lon-
4BB-y	-ta-	8g	-ta-	8b-y	-ta-
.	.	8b-y	-no	8dd	-no
4C	-no	8a	dal	8cc	dal
.	.	8g	mio	8b-y	mio
=2	=2	=2	=2	=2	=2
4.D	dal	4g	co-	2a	co-
.	.	4f#X	.	.	.
8D	mio	.	.	.	.
4GG	co-	4g	-re	4g	-re
4GG	-re	8b-y	In-	8dd	In-
.	.	8b-y	-fi-	8dd	-fi-
=3	=3	=3	=3	=3	=3
2r	.	4cc	-ni-	4ee-X	-ni-
.	.	8b-y	-t'è'l	8dd	-t'è'l
.	.	8a	do-	8cc	do-
4r	.	2g	-lo-	[2b-y	-lo-
8G	In-	.	.	.	.
8A	-fi-	.	.	.	.
=4	=4	=4	=4	=4	=4
4B-y	-ni-	2.dd	-re,	2b-]	.
8A	-t'è'l	.	.	.	.
8G	do-	.	.	.	.
4F#X	-lo-	.	.	4a	-re,
4F#i	-re,	8dd	In-	8a	In-
.	.	8dd	-fi-	8a	-fi-
=5	=5	=5	=5	=5	=5
4r	.	2.a	-ni-	2.e	-ni-
8C#X	In-	.	.	.	.
8C#i	-fi-	.	.	.	.
4C#i	-ni-	.	.	.	.
8C#i	-te	8a	-te	8e	-te
8C#i	le	8a	le	8e	le
=6	=6	=6	=6	=6	=6
2D	pe-	2b-y	pe-	2g	pe-
2D	-ne	2a	-ne	2f#X	-ne
=7	=7	=7	=7	=7	=7
2.D	ed	2r	.	2.ffnXi	ed
.	.	[2a	ed	.	.
8C	i	.	.	8ee	i
8BB-y	tor-	.	.	8dd	tor-
=8	=8	=8	=8	=8	=8
1AA	-men-	4a]	.	(>2cc	-men-
.	.	8g	i	.	.
.	.	8f	tor-	.	.
.	.	4f	-men-	2cc#X)	.
.	.	4e	.	.	.
=9	=9	=9	=9	=9	=9
1D	-ti,	1d	-ti,	1dd	-ti,
=10	=10	=10	=10	=10	=10
4r	.	4r	.	2r	.
8D	In-	8f	In-	.	.
8E	-fi-	8g	-fi-	.	.
[2F	-ni-	[2a	-ni-	4r	.
.	.	.	.	8a	In-
.	.	.	.	8b-y	-fi-
=11	=11	=11	=11	=11	=11
4F]	.	4a]	.	4cc	-ni
8F#X	-t'i	8a	-t'i	8dd	t'i
8F#i	mar-	8a	mar-	8dd	mar-
(>2G	-ti-	(>2b-y	-ti-	(>2ee-X	-ti-
=12	=12	=12	=12	=12	=12
2G#X)	.	2bnX)	.	2eenX)	.
2A	-ri,	2a	-ri,	2cc	-ri,
=13	=13	=13	=13	=13	=13
4r	.	4r	.	2r	.
8B-y	In-	8dd	In-	.	.
8A	-fi-	8cc	-fi-	.	.
4G	-ni-	4b-y	-ni-	4r	.
4G	-ti	4b-y	-ti	8b-y	In-
.	.	.	.	8a	-fi-
=14	=14	=14	=14	=14	=14
4E-X	i	4b-y	i	4g	-ni-
8r	.	8r	.	4g	-t'i
8C	so-	8g	so-	.	.
2D	-spi-	2f#X	-spi-	8r	.
.	.	.	.	8dd	so-
.	.	.	.	4a	-spi-
=15	=15	=15	=15	=15	=15
1GG	-ri,	1g	-ri,	1bnX	-ri,
=16	=16	=16	=16	=16	=16
4r	.	2r	.	4r	.
8G	In-	.	.	8b-y	In-
8G	-fi-	.	.	8b-y	-fi-
[2G	-ni-	4r	.	[2b-y	-ni-
.	.	8ee-X	In-	.	.
.	.	8ee-i	-fi-	.	.
=17	=17	=17	=17	=17	=17
4G]	.	4ee-i	-ni-	4b-]	.
8F	-te	8cc	-te	8a	-te
8E-X	le	8g	le	8b-y	le
4.D	la-	4.a	la-	4.f	la-
8D	-gri-	8a	-gri-	8f#X	-gri-
=18	=18	=18	=18	=18	=18
2AA	-me	2a	-me_e_i	2f#i	-me
2BB-y	e_i	2g	la-	[2dd	e_i
=19	=19	=19	=19	=19	=19
2BBnX	la-	[1g	-men-	2dd]	.
[2C	-men-	.	.	2cc	la-
=20	=20	=20	=20	=20	=20
2C]	.	2g]	.	2b-y	-men-
2FF	-ti:	2f	-ti:	2a	-ti:
=21	=21	=21	=21	=21	=21
1r	.	2r	.	2g	Di
.	.	2dd	Di	8d	ri-
.	.	.	.	8e	-ve-
.	.	.	.	8f	-der-
.	.	.	.	8d	-vi_ho-
=22	=22	=22	=22	=22	=22
2F	Di	8a	ri-	2f	-mai,
.	.	8b-y	-ve-	.	.
.	.	8cc	-der-	.	.
.	.	8a	-vi_ho	.	.
8C	ri-	4cc	ma-	4r	.
8D	-ve-	.	.	.	.
8E-X	-der-	8cc	-i,	4ee-X	<Di
8C	-vi_ho-	8cc	<Di	.	.
=23	=23	=23	=23	=23	=23
4E-X	-mai,	8b-y	ri-	8g	ri-
.	.	8cc	-ve-	8a	-ve-
4r	.	8dd	-der-	8b-y	-der-
.	.	8b-y	-vi_ho-	8dd	-vi_ho-
4r	.	4a	-ma-	4cc	-mai,>
4FF	<Di	8cc	-i,>	4a	<Di
.	.	8cc	<Di	.	.
=24	=24	=24	=24	=24	=24
8GG	ri-	8b-y	ri-	8dd	ri-
8AA	-ve-	8a	-ve-	8cc	-ve-
8BB-y	-der-	8g	-der-	8b-y	-der-
8C	-vi_ho-	8g	-vi_ho-	8b-y	-vi_ho-
2D	-mai,>	2f#X	-mai,>	2a	-mai,>
=25	=25	=25	=25	=25	=25
4F	lu-	2r	.	4a	lu-
8E	-ce	.	.	8g	-ce
8D	di-	.	.	8f	di-
[2C	-vi-	4cc	lu-	4e	-vi-
.	.	8b-y	-ce	[4f	.
.	.	8a	di-	.	.
=26	=26	=26	=26	=26	=26
2C]	.	2g	-vi-	4f]	.
.	.	.	.	4e	.
2FF	-ne;	2f	-ne;	2f	-ne;
=27	=27	=27	=27	=27	=27
2C	Sol	2r	.	2e	Sol
8F	fi-	2f	Sol	8a	fi-
8G	-ne_ha	.	.	8b-y	-ne_ha
8A	la	.	.	8cc	la
8F	spe-	.	.	8a	spe-
=28	=28	=28	=28	=28	=28
2G	-ran-	8b-y	fi-	2dd	-ran-
.	.	8cc	-ne_ha	.	.
.	.	8dd	la	.	.
.	.	8b-y	spe-	.	.
2F	-za,	4cc	-ran-	2a	-za,
.	.	4cc	-za,	.	.
=29	=29	=29	=29	=29	=29
4r	.	1r	.	2r	.
8F	E	.	.	.	.
8C	del	.	.	.	.
4AA	fon-	.	.	4r	.
8FF	-do	.	.	8cc	E
8FF	de'	.	.	8a	del
=30	=30	=30	=30	=30	=30
2BB-y	ma-	4r	.	4f	fon-
.	.	8dd	E	8d	-do
.	.	8b-y	del	8d	de'
2BB-y	-li	4f	fon-	4b-y	ma-
.	.	8d	-do	4f	-li
.	.	8d	de'	.	.
=31	=31	=31	=31	=31	=31
2BB-y	hor	4f	ma-	2dd	hor
.	.	4f	-li	.	.
[2C	non	[2a	hor	[2cc	non
=32	=32	=32	=32	=32	=32
2C]	.	2a]	.	2cc]	.
2GG	a-	4.g	non	2b-y	a-
.	.	8g	a-	.	.
=33	=33	=33	=33	=33	=33
1D	-van-	4f#X	-van-	1a	-van-
.	.	2g	.	.	.
.	.	4f#X	.	.	.
=34	=34	=34	=34	=34	=34
1GGl	-za.	1gl	-za.	1bnXl	-za.
==	==	==	==	==	==
*-	*-	*-	*-	*-	*-
!!!system-decoration: [*]
!!!RDF**kern: > = above
!!!RDF**kern: i = editorial accidental
!!!RDF**kern: l = terminal long
!!!ENC: Emiliano Ricciardi
!!!END: 2019/01/30
!!!EED: Schleuse, Paul
!!!EEV: 2019/01/30
!!!YEC: Copyright 2018 Emiliano Ricciardi, All Rights Reserved
!!!ONB: Translated from MusicXML on 2019/01/30 and edited by Craig Stuart Sapp
!!@@BEGIN:	VERSEDATA
!!@SOLERTI:	323
!!@CATALOGNUM:	Trm0323
!!@LAST_MODIFIED: 2020/07/12
!!@TITLE:		Lontano dal mio cuore
!!@GENRE:		madrigale
!!@MANUSRC:	none
!!@PRINTSRC:	28, 50, 141, 166, 169
!!@@BEGIN:	VERSES
!!@ABOUTIT:
!!@ABOUTEN:
!!@EDITOR:	Solerti, Angelo
!!@EDITION_TITLE: Le Rime di Torquato Tasso
!!@EDITION_LOC:	Bologna
!!@EDITION_PUB:	Romagnoli-Dall’Acqua
!!@EDITION_DATE:  1898-1902
!!@EDITION_VOL:	2
!!@EDITION_PAGE:  376
!!@TRANSLATOR:	Emiliano Ricciardi and Amyrose McCue Gill
!!@VERSE:
!!	Lontano dal mio core
!!	Infinito è 'l dolore,
!!	Infinite le pene e i miei tormenti,
!!	Infiniti i martiri,
!!	Infiniti i sospiri,
!!	Infinite le lagrime e i lamenti:
!!	Sol la speranza ha fine
!!	Di rivedervi mai, luci divine;
!!	Sol fine ha la speranza,
!!	E nel fondo de' mali ognor avanza.
!!@TVERSE:
!!	Far from my heart
!!	Endless is the sorrow,
!!	Endless the sufferings and my torments
!!	Endless the martyrdoms,
!!	Endless the sighs,
!!	Endless the tears and the laments:
!!	Only hope has the goal
!!	Of ever seeing you, divine eyes;
!!	[One] goal alone has my hope,
!!	And still in the depths of these evils it presses forward.
!!@@END:		VERSES
!!@OTHER_CRIT_ED:   None
!!@ATTRIBUTION_ABOUT:	Secure
!!		<br>
!!		This poem is attributed to Tasso in two independent literary prints (see Literary Sources)
!!@DATING:	In or before 1587
!!@DEDICATEE:
!!@COMMENTARY:
!!@@END:		VERSEDATA
!!@@BEGIN:	SETTING
!!@CATALOGNUM:	Trm0323a
!!@RIMETITLE:	Lontano dal mio cuore
!!@SOLERTI:	323
!!@COMPOSER:	Garzi, Pietro Francesco
!!@PRINCEPSTITLE:	Madrigali e canzonette a due, tre, quattro e cinque voci
!!@PRINCEPSLOC:	Venetia
!!@NORMLOC:	Venice
!!@NORMPUB:	Bartholomeo Magni
!!@NORMPUBSHORT:	Magni
!!@PRINCEPSPUB:	Magni
!!@PRINCEPSYEAR:	1629
!!@PRINCEPSRISM:	G 448
!!@REPRINTS:	
!!@OVOICES:	3
!!@EXTANTVOICES:	3
!!@PARTBOOKS:	
!!@EXTPARTBOOKS:	
!!@OCLEFS:	C1,C1,F4
!!@OMENSURATION:	C
!!@OKEYSIG:	b-
!!@FINAL:	G
!!@TIMPEDITOR:	Schleuse, Paul
!!@NOTE:		
!!@@END:		SETTING
